priv/static/images/languages/ruby.svg

<svg
  width="140"
  height="140"
  viewBox="0 0 140 140"
  fill="none"
  xmlns="http://www.w3.org/2000/svg"
>
  <path
    fill-rule="evenodd"
    clip-rule="evenodd"
    d="M108.493 92.112L28.6363 139.531L132.036 132.514L140 28.2517L108.493 92.112Z"
    fill="url(#paint0_linear_1_735)"
  />
  <path
    fill-rule="evenodd"
    clip-rule="evenodd"
    d="M132.206 132.443L123.318 71.103L99.1106 103.068L132.206 132.443Z"
    fill="url(#paint1_linear_1_735)"
  />
  <path
    fill-rule="evenodd"
    clip-rule="evenodd"
    d="M132.326 132.443L67.2165 127.332L28.9822 139.397L132.326 132.443Z"
    fill="url(#paint2_linear_1_735)"
  />
  <path
    fill-rule="evenodd"
    clip-rule="evenodd"
    d="M29.074 139.411L45.3391 86.1257L9.54736 93.7789L29.074 139.411Z"
    fill="url(#paint3_linear_1_735)"
  />
  <path
    fill-rule="evenodd"
    clip-rule="evenodd"
    d="M99.1043 103.245L84.1381 44.623L41.3081 84.7705L99.1043 103.245Z"
    fill="url(#paint4_linear_1_735)"
  />
  <path
    fill-rule="evenodd"
    clip-rule="evenodd"
    d="M136.604 45.4488L96.1181 12.3821L84.8441 48.8303L136.604 45.4488Z"
    fill="url(#paint5_linear_1_735)"
  />
  <path
    fill-rule="evenodd"
    clip-rule="evenodd"
    d="M117.671 0.592747L93.8591 13.7517L78.8364 0.41626L117.671 0.592747Z"
    fill="url(#paint6_linear_1_735)"
  />
  <path
    fill-rule="evenodd"
    clip-rule="evenodd"
    d="M0.130005 111.653L10.1051 93.4605L2.03607 71.7878L0.130005 111.653Z"
    fill="url(#paint7_linear_1_735)"
  />
  <path
    fill-rule="evenodd"
    clip-rule="evenodd"
    d="M1.49954 71.103L9.61797 94.1311L44.8943 86.2167L85.1688 48.7872L96.5346 12.6856L78.6381 0.0490723L48.2116 11.4361C38.6255 20.3522 20.0237 37.9939 19.353 38.3257C18.6894 38.6646 7.06949 60.6267 1.49954 71.103Z"
    fill="white"
  />
  <path
    fill-rule="evenodd"
    clip-rule="evenodd"
    d="M30.0058 29.7342C50.782 9.13456 77.5657 -3.03603 87.8444 7.33438C98.1167 17.7048 87.2231 42.9072 66.447 63.4998C45.6709 84.0924 19.2189 96.9336 8.94734 86.5632C-1.33131 76.1999 9.22972 50.3268 30.0058 29.7342Z"
    fill="url(#paint8_linear_1_735)"
  />
  <path
    fill-rule="evenodd"
    clip-rule="evenodd"
    d="M29.074 139.39L45.212 85.9353L98.8078 103.153C79.4294 121.325 57.8768 136.686 29.074 139.39Z"
    fill="url(#paint9_linear_1_735)"
  />
  <path
    fill-rule="evenodd"
    clip-rule="evenodd"
    d="M85.2394 48.6821L98.9984 103.181C115.186 86.161 129.714 67.8628 136.83 45.23L85.2394 48.6821Z"
    fill="url(#paint10_linear_1_735)"
  />
  <path
    fill-rule="evenodd"
    clip-rule="evenodd"
    d="M136.689 45.5052C142.195 28.8871 143.466 5.04716 117.501 0.62085L96.195 12.389L136.689 45.5052Z"
    fill="url(#paint11_linear_1_735)"
  />
  <path
    fill-rule="evenodd"
    clip-rule="evenodd"
    d="M0.130005 111.413C0.892431 138.84 20.6802 139.248 29.1093 139.489L9.63916 94.0181L0.130005 111.413Z"
    fill="#9E1209"
  />
  <path
    fill-rule="evenodd"
    clip-rule="evenodd"
    d="M85.3163 48.7667C97.7552 56.4121 122.824 71.7665 123.332 72.0489C124.122 72.4937 134.141 55.1555 136.414 45.3569L85.3163 48.7667Z"
    fill="url(#paint12_radial_1_735)"
  />
  <path
    fill-rule="evenodd"
    clip-rule="evenodd"
    d="M45.1908 85.9353L66.7647 127.558C79.5212 120.64 89.5104 112.211 98.6595 103.182L45.1908 85.9353Z"
    fill="url(#paint13_radial_1_735)"
  />
  <path
    fill-rule="evenodd"
    clip-rule="evenodd"
    d="M9.55445 94.0748L6.49768 130.474C12.2653 138.352 20.2002 139.037 28.5233 138.423C22.5016 123.435 10.4722 93.4676 9.55445 94.0748Z"
    fill="url(#paint14_linear_1_735)"
  />
  <path
    fill-rule="evenodd"
    clip-rule="evenodd"
    d="M96.0687 12.481L138.927 18.4957C136.64 8.80298 129.615 2.54826 117.643 0.592773L96.0687 12.481Z"
    fill="url(#paint15_linear_1_735)"
  />
  <defs>
    <linearGradient
      id="paint0_linear_1_735"
      x1="123.017"
      y1="152.216"
      x2="93.5105"
      y2="100.12"
      gradientUnits="userSpaceOnUse"
    >
      <stop stop-color="#FB7655" />
      <stop offset="0.41" stop-color="#E42B1E" />
      <stop offset="0.99" stop-color="#990000" />
      <stop offset="1" stop-color="#990000" />
    </linearGradient>
    <linearGradient
      id="paint1_linear_1_735"
      x1="137.716"
      y1="108.453"
      x2="99.6885"
      y2="82.9343"
      gradientUnits="userSpaceOnUse"
    >
      <stop stop-color="#871101" />
      <stop offset="0.99" stop-color="#911209" />
      <stop offset="1" stop-color="#911209" />
    </linearGradient>
    <linearGradient
      id="paint2_linear_1_735"
      x1="107.29"
      y1="153.795"
      x2="69.2635"
      y2="128.277"
      gradientUnits="userSpaceOnUse"
    >
      <stop stop-color="#871101" />
      <stop offset="0.99" stop-color="#911209" />
      <stop offset="1" stop-color="#911209" />
    </linearGradient>
    <linearGradient
      id="paint3_linear_1_735"
      x1="27.4477"
      y1="89.9806"
      x2="33.3428"
      y2="128.293"
      gradientUnits="userSpaceOnUse"
    >
      <stop stop-color="white" />
      <stop offset="0.23" stop-color="#E57252" />
      <stop offset="0.46" stop-color="#DE3B20" />
      <stop offset="0.99" stop-color="#A60003" />
      <stop offset="1" stop-color="#A60003" />
    </linearGradient>
    <linearGradient
      id="paint4_linear_1_735"
      x1="67.995"
      y1="54.2065"
      x2="70.1671"
      y2="93.3069"
      gradientUnits="userSpaceOnUse"
    >
      <stop stop-color="white" />
      <stop offset="0.23" stop-color="#E4714E" />
      <stop offset="0.56" stop-color="#BE1A0D" />
      <stop offset="0.99" stop-color="#A80D00" />
      <stop offset="1" stop-color="#A80D00" />
    </linearGradient>
    <linearGradient
      id="paint5_linear_1_735"
      x1="103.977"
      y1="18.0657"
      x2="110.48"
      y2="46.0885"
      gradientUnits="userSpaceOnUse"
    >
      <stop stop-color="white" />
      <stop offset="0.18" stop-color="#E46342" />
      <stop offset="0.4" stop-color="#C82410" />
      <stop offset="0.99" stop-color="#A80D00" />
      <stop offset="1" stop-color="#A80D00" />
    </linearGradient>
    <linearGradient
      id="paint6_linear_1_735"
      x1="84.1212"
      y1="8.19689"
      x2="112.142"
      y2="-5.81361"
      gradientUnits="userSpaceOnUse"
    >
      <stop stop-color="white" />
      <stop offset="0.54" stop-color="#C81F11" />
      <stop offset="0.99" stop-color="#BF0905" />
      <stop offset="1" stop-color="#BF0905" />
    </linearGradient>
    <linearGradient
      id="paint7_linear_1_735"
      x1="2.88554"
      y1="80.2132"
      x2="5.19181"
      y2="103.303"
      gradientUnits="userSpaceOnUse"
    >
      <stop stop-color="white" />
      <stop offset="0.31" stop-color="#DE4024" />
      <stop offset="0.99" stop-color="#BF190B" />
      <stop offset="1" stop-color="#BF190B" />
    </linearGradient>
    <linearGradient
      id="paint8_linear_1_735"
      x1="-12.9694"
      y1="109.545"
      x2="95.4441"
      y2="-1.93425"
      gradientUnits="userSpaceOnUse"
    >
      <stop stop-color="#BD0012" />
      <stop offset="0.07" stop-color="white" />
      <stop offset="0.17" stop-color="white" />
      <stop offset="0.27" stop-color="#C82F1C" />
      <stop offset="0.33" stop-color="#820C01" />
      <stop offset="0.46" stop-color="#A31601" />
      <stop offset="0.72" stop-color="#B31301" />
      <stop offset="0.99" stop-color="#E82609" />
      <stop offset="1" stop-color="#E82609" />
    </linearGradient>
    <linearGradient
      id="paint9_linear_1_735"
      x1="70.0718"
      y1="120.79"
      x2="37.4167"
      y2="112.731"
      gradientUnits="userSpaceOnUse"
    >
      <stop stop-color="#8C0C01" />
      <stop offset="0.54" stop-color="#990C00" />
      <stop offset="0.99" stop-color="#A80D0E" />
      <stop offset="1" stop-color="#A80D0E" />
    </linearGradient>
    <linearGradient
      id="paint10_linear_1_735"
      x1="126.16"
      y1="81.5967"
      x2="97.1507"
      y2="55.5962"
      gradientUnits="userSpaceOnUse"
    >
      <stop stop-color="#7E110B" />
      <stop offset="0.99" stop-color="#9E0C00" />
      <stop offset="1" stop-color="#9E0C00" />
    </linearGradient>
    <linearGradient
      id="paint11_linear_1_735"
      x1="136.819"
      y1="33.8902"
      x2="122.368"
      y2="18.4417"
      gradientUnits="userSpaceOnUse"
    >
      <stop stop-color="#79130D" />
      <stop offset="0.99" stop-color="#9E120B" />
      <stop offset="1" stop-color="#9E120B" />
    </linearGradient>
    <radialGradient
      id="paint12_radial_1_735"
      cx="0"
      cy="0"
      r="1"
      gradientUnits="userSpaceOnUse"
      gradientTransform="translate(101.668 56.0932) scale(35.55 35.55)"
    >
      <stop stop-color="#A80D00" />
      <stop offset="0.99" stop-color="#7E0E08" />
      <stop offset="1" stop-color="#7E0E08" />
    </radialGradient>
    <radialGradient
      id="paint13_radial_1_735"
      cx="0"
      cy="0"
      r="1"
      gradientUnits="userSpaceOnUse"
      gradientTransform="translate(52.4355 102.942) scale(47.2589 47.2589)"
    >
      <stop stop-color="#A30C00" />
      <stop offset="0.99" stop-color="#800E08" />
      <stop offset="1" stop-color="#800E08" />
    </radialGradient>
    <linearGradient
      id="paint14_linear_1_735"
      x1="18.9576"
      y1="139.359"
      x2="7.18154"
      y2="99.4061"
      gradientUnits="userSpaceOnUse"
    >
      <stop stop-color="#8B2114" />
      <stop offset="0.43" stop-color="#9E100A" />
      <stop offset="0.99" stop-color="#B3100C" />
      <stop offset="1" stop-color="#B3100C" />
    </linearGradient>
    <linearGradient
      id="paint15_linear_1_735"
      x1="109.299"
      y1="6.96602"
      x2="135.7"
      y2="18.6199"
      gradientUnits="userSpaceOnUse"
    >
      <stop stop-color="#B31000" />
      <stop offset="0.44" stop-color="#910F08" />
      <stop offset="0.99" stop-color="#791C12" />
      <stop offset="1" stop-color="#791C12" />
    </linearGradient>
  </defs>
</svg>

<svg xmlns="http://www.w3.org/2000/svg" width="140" height="140" fill="none"><path fill="url(#a)" fill-rule="evenodd" d="m108.493 92.112-79.857 47.419 103.4-7.017L140 28.252z" clip-rule="evenodd"/><path fill="url(#b)" fill-rule="evenodd" d="m132.206 132.443-8.888-61.34-24.207 31.965z" clip-rule="evenodd"/><path fill="url(#c)" fill-rule="evenodd" d="m132.326 132.443-65.11-5.111-38.234 12.065z" clip-rule="evenodd"/><path fill="url(#d)" fill-rule="evenodd" d="m29.074 139.411 16.265-53.285-35.792 7.653z" clip-rule="evenodd"/><path fill="url(#e)" fill-rule="evenodd" d="M99.104 103.245 84.138 44.623l-42.83 40.148z" clip-rule="evenodd"/><path fill="url(#f)" fill-rule="evenodd" d="M136.604 45.449 96.118 12.382 84.844 48.83z" clip-rule="evenodd"/><path fill="url(#g)" fill-rule="evenodd" d="M117.671.593 93.859 13.752 78.836.416z" clip-rule="evenodd"/><path fill="url(#h)" fill-rule="evenodd" d="m.13 111.653 9.975-18.193-8.069-21.672z" clip-rule="evenodd"/><path fill="#fff" fill-rule="evenodd" d="m1.5 71.103 8.118 23.028 35.276-7.914 40.275-37.43 11.366-36.101L78.638.049 48.212 11.436c-9.586 8.916-28.188 26.558-28.859 26.89-.664.339-12.284 22.3-17.853 32.777" clip-rule="evenodd"/><path fill="url(#i)" fill-rule="evenodd" d="M30.006 29.734c20.776-20.6 47.56-32.77 57.838-22.4 10.273 10.37-.62 35.573-21.397 56.166s-47.228 33.434-57.5 23.063C-1.33 76.2 9.23 50.327 30.006 29.734" clip-rule="evenodd"/><path fill="url(#j)" fill-rule="evenodd" d="m29.074 139.39 16.138-53.455 53.596 17.218c-19.379 18.172-40.931 33.533-69.734 36.237" clip-rule="evenodd"/><path fill="url(#k)" fill-rule="evenodd" d="m85.24 48.682 13.758 54.499c16.188-17.02 30.716-35.318 37.832-57.951z" clip-rule="evenodd"/><path fill="url(#l)" fill-rule="evenodd" d="M136.689 45.505c5.506-16.618 6.777-40.458-19.188-44.884L96.195 12.389z" clip-rule="evenodd"/><path fill="#9E1209" fill-rule="evenodd" d="M.13 111.413c.762 27.427 20.55 27.835 28.98 28.076L9.64 94.019z" clip-rule="evenodd"/><path fill="url(#m)" fill-rule="evenodd" d="M85.316 48.767c12.44 7.645 37.508 23 38.016 23.282.79.445 10.809-16.894 13.082-26.692z" clip-rule="evenodd"/><path fill="url(#n)" fill-rule="evenodd" d="m45.19 85.935 21.575 41.623c12.756-6.918 22.745-15.347 31.894-24.376z" clip-rule="evenodd"/><path fill="url(#o)" fill-rule="evenodd" d="m9.554 94.075-3.056 36.399c5.767 7.878 13.702 8.563 22.025 7.949-6.021-14.988-18.05-44.955-18.969-44.348" clip-rule="evenodd"/><path fill="url(#p)" fill-rule="evenodd" d="m96.069 12.481 42.858 6.015C136.64 8.803 129.615 2.548 117.643.593z" clip-rule="evenodd"/><defs><linearGradient id="a" x1="123.017" x2="93.51" y1="152.216" y2="100.12" gradientUnits="userSpaceOnUse"><stop stop-color="#FB7655"/><stop offset=".41" stop-color="#E42B1E"/><stop offset=".99" stop-color="#900"/><stop offset="1" stop-color="#900"/></linearGradient><linearGradient id="b" x1="137.716" x2="99.689" y1="108.453" y2="82.934" gradientUnits="userSpaceOnUse"><stop stop-color="#871101"/><stop offset=".99" stop-color="#911209"/><stop offset="1" stop-color="#911209"/></linearGradient><linearGradient id="c" x1="107.29" x2="69.263" y1="153.795" y2="128.277" gradientUnits="userSpaceOnUse"><stop stop-color="#871101"/><stop offset=".99" stop-color="#911209"/><stop offset="1" stop-color="#911209"/></linearGradient><linearGradient id="d" x1="27.448" x2="33.343" y1="89.981" y2="128.293" gradientUnits="userSpaceOnUse"><stop stop-color="#fff"/><stop offset=".23" stop-color="#E57252"/><stop offset=".46" stop-color="#DE3B20"/><stop offset=".99" stop-color="#A60003"/><stop offset="1" stop-color="#A60003"/></linearGradient><linearGradient id="e" x1="67.995" x2="70.167" y1="54.206" y2="93.307" gradientUnits="userSpaceOnUse"><stop stop-color="#fff"/><stop offset=".23" stop-color="#E4714E"/><stop offset=".56" stop-color="#BE1A0D"/><stop offset=".99" stop-color="#A80D00"/><stop offset="1" stop-color="#A80D00"/></linearGradient><linearGradient id="f" x1="103.977" x2="110.48" y1="18.066" y2="46.089" gradientUnits="userSpaceOnUse"><stop stop-color="#fff"/><stop offset=".18" stop-color="#E46342"/><stop offset=".4" stop-color="#C82410"/><stop offset=".99" stop-color="#A80D00"/><stop offset="1" stop-color="#A80D00"/></linearGradient><linearGradient id="g" x1="84.121" x2="112.142" y1="8.197" y2="-5.814" gradientUnits="userSpaceOnUse"><stop stop-color="#fff"/><stop offset=".54" stop-color="#C81F11"/><stop offset=".99" stop-color="#BF0905"/><stop offset="1" stop-color="#BF0905"/></linearGradient><linearGradient id="h" x1="2.886" x2="5.192" y1="80.213" y2="103.303" gradientUnits="userSpaceOnUse"><stop stop-color="#fff"/><stop offset=".31" stop-color="#DE4024"/><stop offset=".99" stop-color="#BF190B"/><stop offset="1" stop-color="#BF190B"/></linearGradient><linearGradient id="i" x1="-12.969" x2="95.444" y1="109.545" y2="-1.934" gradientUnits="userSpaceOnUse"><stop stop-color="#BD0012"/><stop offset=".07" stop-color="#fff"/><stop offset=".17" stop-color="#fff"/><stop offset=".27" stop-color="#C82F1C"/><stop offset=".33" stop-color="#820C01"/><stop offset=".46" stop-color="#A31601"/><stop offset=".72" stop-color="#B31301"/><stop offset=".99" stop-color="#E82609"/><stop offset="1" stop-color="#E82609"/></linearGradient><linearGradient id="j" x1="70.072" x2="37.417" y1="120.79" y2="112.731" gradientUnits="userSpaceOnUse"><stop stop-color="#8C0C01"/><stop offset=".54" stop-color="#990C00"/><stop offset=".99" stop-color="#A80D0E"/><stop offset="1" stop-color="#A80D0E"/></linearGradient><linearGradient id="k" x1="126.16" x2="97.151" y1="81.597" y2="55.596" gradientUnits="userSpaceOnUse"><stop stop-color="#7E110B"/><stop offset=".99" stop-color="#9E0C00"/><stop offset="1" stop-color="#9E0C00"/></linearGradient><linearGradient id="l" x1="136.819" x2="122.368" y1="33.89" y2="18.442" gradientUnits="userSpaceOnUse"><stop stop-color="#79130D"/><stop offset=".99" stop-color="#9E120B"/><stop offset="1" stop-color="#9E120B"/></linearGradient><linearGradient id="o" x1="18.958" x2="7.182" y1="139.359" y2="99.406" gradientUnits="userSpaceOnUse"><stop stop-color="#8B2114"/><stop offset=".43" stop-color="#9E100A"/><stop offset=".99" stop-color="#B3100C"/><stop offset="1" stop-color="#B3100C"/></linearGradient><linearGradient id="p" x1="109.299" x2="135.7" y1="6.966" y2="18.62" gradientUnits="userSpaceOnUse"><stop stop-color="#B31000"/><stop offset=".44" stop-color="#910F08"/><stop offset=".99" stop-color="#791C12"/><stop offset="1" stop-color="#791C12"/></linearGradient><radialGradient id="m" cx="0" cy="0" r="1" gradientTransform="translate(101.668 56.093)scale(35.55)" gradientUnits="userSpaceOnUse"><stop stop-color="#A80D00"/><stop offset=".99" stop-color="#7E0E08"/><stop offset="1" stop-color="#7E0E08"/></radialGradient><radialGradient id="n" cx="0" cy="0" r="1" gradientTransform="translate(52.435 102.942)scale(47.2589)" gradientUnits="userSpaceOnUse"><stop stop-color="#A30C00"/><stop offset=".99" stop-color="#800E08"/><stop offset="1" stop-color="#800E08"/></radialGradient></defs></svg>
